Origami/64x64/apps/python.svg

<svg width="64" height="64" version="1.1" viewBox="0 0 64 64" xmlns="http://www.w3.org/2000/svg">
 <path d="m44 20v6c0 3.324-2.676 6-6 6h-12s-6 0-6 6v10.5c0 4.156 4.684 7.5 10.5 7.5h3c5.816 0 10.5-3.344 10.5-7.5v-4.5h4.5c4.156 0 7.5-4.684 7.5-10.5v-3c0-5.816-3.344-10.5-7.5-10.5h-4.5z" style="fill:#ffc851"/>
 <path d="m38 49a2 2 0 0 1 2 2 2 2 0 0 1 -2 2 2 2 0 0 1 -2 -2 2 2 0 0 1 2 -2z" style="opacity:.2"/>
 <path d="m38 48a2 2 0 0 1 2 2 2 2 0 0 1 -2 2 2 2 0 0 1 -2 -2 2 2 0 0 1 2 -2z" style="fill:#ffffff"/>
 <path d="m30.5 8c-5.816 0-10.5 3.345-10.5 7.5v4.5h-4.5c-4.155 0-7.5 4.684-7.5 10.5v3c0 5.816 3.345 10.5 7.5 10.5h4.5v-6c0-3.324 2.676-6 6-6h12s6 0 6-6v-10.5c0-4.155-4.684-7.5-10.5-7.5h-3z" style="fill:#4795d1"/>
 <path d="m26 13a2 2 0 0 1 2 2 2 2 0 0 1 -2 2 2 2 0 0 1 -2 -2 2 2 0 0 1 2 -2z" style="opacity:.2"/>
 <path d="m26 12a2 2 0 0 1 2 2 2 2 0 0 1 -2 2 2 2 0 0 1 -2 -2 2 2 0 0 1 2 -2z" style="fill:#ffffff"/>
 <path d="m30.5 8c-5.816 0-10.5 3.345-10.5 7.5v1c0-4.155 4.684-7.5 10.5-7.5h3c5.816 0 10.5 3.345 10.5 7.5v-1c0-4.155-4.684-7.5-10.5-7.5h-3zm-15 12c-4.155 0-7.5 4.684-7.5 10.5v1c0-5.816 3.345-10.5 7.5-10.5h4.5v-1h-4.5z" style="fill:#ffffff;opacity:.1"/>
 <path d="m44 20v1h4.5c4.156 0 7.5 4.684 7.5 10.5v-1c0-5.816-3.344-10.5-7.5-10.5h-4.5zm0 6c0 3.324-2.676 6-6 6h-12s-6 0-6 6v1c0-6 6-6 6-6h12c3.324 0 6-2.676 6-6v-1z" style="fill:#ffffff;opacity:.1"/>
 <path d="m44 26c0 6-6 6-6 6h-12c-3.324 0-6 2.676-6 6v1c0-3.324 2.676-6 6-6h12s6 0 6-6v-1zm-36 7.5v1c0 5.816 3.345 10.5 7.5 10.5h4.5v-1h-4.5c-4.155 0-7.5-4.684-7.5-10.5z" style="opacity:.2"/>
 <path d="m56 33.5c0 5.816-3.344 10.5-7.5 10.5h-4.5v1h4.5c4.156 0 7.5-4.684 7.5-10.5v-1zm-36 15v1c0 4.155 4.683 7.5 10.5 7.5h3c5.816 0 10.5-3.344 10.5-7.5v-1c0 4.156-4.684 7.5-10.5 7.5h-3c-5.817 0-10.5-3.345-10.5-7.5z" style="opacity:.2"/>
</svg>

<svg xmlns="http://www.w3.org/2000/svg" width="64" height="64" version="1.1" viewBox="0 0 64 64">
 <path style="fill:#ffc851" d="m 44,20 0,6 c 0,3.324 -2.676,6 -6,6 l -12,0 c 0,0 -6,0 -6,6 l 0,10.5 c 0,4.156 4.684,7.5 10.5,7.5 l 3,0 C 39.316,56 44,52.656 44,48.5 l 0,-4.5 4.5,0 C 52.656,44 56,39.316 56,33.5 l 0,-3 C 56,24.684 52.656,20 48.5,20 L 44,20 Z"/>
 <path style="opacity:0.2" d="m 38,49 a 2,2 0 0 1 2,2 2,2 0 0 1 -2,2 2,2 0 0 1 -2,-2 2,2 0 0 1 2,-2 z"/>
 <path style="fill:#ffffff" d="m 38,48 a 2,2 0 0 1 2,2 2,2 0 0 1 -2,2 2,2 0 0 1 -2,-2 2,2 0 0 1 2,-2 z"/>
 <path style="fill:#4795d1" d="M 30.5,8 C 24.684,8 20,11.345 20,15.5 l 0,4.5 -4.5,0 C 11.345,20 8,24.684 8,30.5 l 0,3 C 8,39.316 11.345,44 15.5,44 l 4.5,0 0,-6 c 0,-3.324 2.676,-6 6,-6 l 12,0 c 0,0 6,0 6,-6 L 44,15.5 C 44,11.345 39.316,8 33.5,8 l -3,0 z"/>
 <path style="opacity:0.2" d="m 26,13 a 2,2 0 0 1 2,2 2,2 0 0 1 -2,2 2,2 0 0 1 -2,-2 2,2 0 0 1 2,-2 z"/>
 <path style="fill:#ffffff" d="m 26,12 a 2,2 0 0 1 2,2 2,2 0 0 1 -2,2 2,2 0 0 1 -2,-2 2,2 0 0 1 2,-2 z"/>
 <path style="opacity:0.1;fill:#ffffff" d="M 30.5 8 C 24.684 8 20 11.345 20 15.5 L 20 16.5 C 20 12.345 24.684 9 30.5 9 L 33.5 9 C 39.316 9 44 12.345 44 16.5 L 44 15.5 C 44 11.345 39.316 8 33.5 8 L 30.5 8 z M 15.5 20 C 11.345 20 8 24.684 8 30.5 L 8 31.5 C 8 25.684 11.345 21 15.5 21 L 20 21 L 20 20 L 15.5 20 z"/>
 <path style="opacity:0.1;fill:#ffffff" d="M 44 20 L 44 21 L 48.5 21 C 52.656 21 56 25.684 56 31.5 L 56 30.5 C 56 24.684 52.656 20 48.5 20 L 44 20 z M 44 26 C 44 29.324 41.324 32 38 32 L 26 32 C 26 32 20 32 20 38 L 20 39 C 20 33 26 33 26 33 L 38 33 C 41.324 33 44 30.324 44 27 L 44 26 z"/>
 <path style="opacity:0.2" d="m 44,26 c 0,6 -6,6 -6,6 l -12,0 c -3.324,0 -6,2.676 -6,6 l 0,1 c 0,-3.324 2.676,-6 6,-6 l 12,0 c 0,0 6,0 6,-6 l 0,-1 z m -36,7.5 0,1 C 8,40.316 11.345,45 15.5,45 l 4.5,0 0,-1 -4.5,0 C 11.345,44 8,39.316 8,33.5 Z"/>
 <path style="opacity:0.2" d="M 56,33.5 C 56,39.316 52.656,44 48.5,44 l -4.5,0 0,1 4.5,0 C 52.656,45 56,40.316 56,34.5 l 0,-1 z m -36,15 0,1 c 0,4.155 4.683,7.5 10.5,7.5 l 3,0 C 39.316,57 44,53.656 44,49.5 l 0,-1 C 44,52.656 39.316,56 33.5,56 l -3,0 C 24.683,56 20,52.655 20,48.5 Z"/>
</svg>
